X:1
T:James Gibb editions
T:Ils ont en mesme temps - Pevernage
T:#
%%score [ 1 2 ]
L:1/8
Q:1/4=130
M:4/4
K:F
V:1 treble nm="Soprano" snm="S"
V:2 treble nm="Alto" snm="A"
V:1
"^Ils ont en même temps""^Andreas Pevernage\n(1542-91)""^Philippe Desportes\n(1546-1606)" z8 | %1
w: |
 F4 F2 G2 | A2 B2 c4 | z4 c4 | c2 B2 A2 G2 | F2 F2 (AGAB | c6 BA | B2 c2 A2 G2 | G4 z2 G2 | %9
w: Ils ont en|mê- me temps,|ils|ont en mê- me|temps, é- gal * * *||* con- ten- te-|ment, é-|
 (BABc d4- | d2 cB c2) d2 | B2 A2 A4- | A4 z4 | c8 | B4 B4- | B4 z4 | B8 | A4 A4- | A4 z4 | A8 | %20
w: gal * * * *|* * * * con-|ten- te- ment,||Même|en- nui,||même|en- nui,||même|
 G4 G4- | G4 z4 | G8 | F4 F4- | F4 z2 E2 | F2 G2 z2 F2 | G2 A2 z2 c2- | c2 G4 B2- | B2 AG F4- | %29
w: en- nui,||même|en- nui,|* d'un|seul coup, d'un|seul coup, leurs|* poi- tri\-||
 F2 G2 A4 | G2) G2 c2 (B2 | A2 G2 F4- | F2 ED E4) | F8 | z4 F4 | z2 F2 (DCDE | FEFG AGAB | %37
w: |* nes en- ta\-|||mé:|Bref|leur vi\- * * *||
 A4) A4- | A4 (G2 F2 | G8- | G4) F4 | E8 | z8 | z4 c4 | c2 d2 c2 d2 | c4 A4 | c8- | c8 | c8 | %49
w: * e|* et *||* leur|mort||pend|d'un- e seul- e|tra- me,|pend|||
 G6 F2 | G2 F2 G4 | F4 F4 | G4 A4 | B4 G4 | A4 z2 c2- | c2 B4 A2- | A2 G4 B2- | B2 A4 G2 | A4 =B4 | %59
w: d'un- e|seul- e tra-|me Et|comm' un|sim- ple|corps, Et|* comm' un|* sim- ple|* corps ils|n'ont qu'un|
 c2 c2 d4 | z2 c2 B2 A2 | G2 G2 F2 D2 | E4 F4 | G2 G2 A4 | z2 d2 c2 B2 | A2 A2 G2 D2 | E4 F4 | %67
w: mou- ve- ment,|ils n'ont qu'un|mou- ve- ment, ils|n'ont qu'un|mou- ve- ment,|ils n'ont qu'un|mou- ve- ment, ils|n'ont qu'un|
 G2 G2 A2[Q:1/4=128] A2- |[Q:1/4=126] A2[Q:1/4=122] G4[Q:1/4=119] F2 | %69
w: mou- ve- ment, ils|* n'ont qu'un|
[Q:1/4=117] (F2[Q:1/4=115] E[Q:1/4=114]D[Q:1/4=113] E2)[Q:1/4=111] E2 |[Q:1/4=110] F16 |] %71
w: mou\- * * * ve-|ment.|
V:2
 F4 z4 | F2 E2 D2 C2 | B,4 z4 | F,4 F,2 G,2 | A,2 B,2 C4 | z2 C2 (DCDE | F6 ED | E2 F2 D2 C2 | %8
w: Ils|ont en mê- me|temps,|ils ont en|mê- me temps,|é- gal * * *||* con- ten- te-|
 C4 z2 C2 | (EDEF G4- | G2 FE F2) G2 | _E2 D2 D4- | D4 z4 | F8 | _E4 E4- | E4 z4 | _E8 | D4 D4- | %18
w: ment, é-|gal * * * *|* * * * con-|ten- te- ment,||Même|en- nui,||même|en- nui,|
 D4 z4 | D8 | C4 C4- | C4 z4 | C8 | B,4 B,4- | B,4 z2 A,2 | B,2 C2 z2 B,2 | C2 D2 z2 F2- | %27
w: |même|en- nui,||même|en- nui,|* d'un|seul coup, d'un|seul coup, leurs|
 F2 C4 _E2- | E2 DC B,4- | B,2 C2 D4) | C2 C2 (C2 B,2 | A,2 G,2 F,2 G,2 | A,2 B,2 A,2 G,F, | %33
w: * poi- tri\-|||nes en- ta\- *|||
 G,4) F,4- | F,4 F4 | z2 F2 (DCDE | FEFG A4) | D8 | (C2 B,2 C4- | C8) | B,4 A,4- | A,8 | A,4 z4 | %43
w: * mé:|* Bref|leur vi\- * * *||e|et * *||leur mort|||
 F8- | F8 | F8 | z4 F4- | F2 E2 F2 E2 | F4 C4 | z2 C2 C2 D2 | E2 F4 E2 | F4 z2 B,2- | B,2 C4 D2- | %53
w: pend|||d'un\-|* e seul- e|tra- me,|pend d'un- e|seul- e tra-|me Et|* comm' un|
 D2 _E4 C2- | C2 D4 F2 | _E4 D4 | C4 _E4 | D2 D2 C2 B,2 | A,2 A,2 G,2 G2 | F2 E2 D2 D2 | C2 C2 D4 | %61
w: * sim- ple|* corps, Et|comm' un|sim- ple|corps ils n'ont qu'un|mou- ve- ment, ils|n'ont qu'un mou- ve-|ment, ils n'ont|
 E4 F2 F2 | G4 z2 D2 | C2 B,2 A,2 A,2 | G,4 z2 G,2 | A,4 =B,4 | C2 C2 D4 | z4 C4 | B,4 A,4 | %69
w: qu'un mou- ve-|ment, ils|n'ont qu'un mou- ve-|ment, ils|n'ont qu'un|mou- ve- ment,|ils|n'ont qu'un|
 G,4 G,4 | F,16 |] %71
w: mou- ve-|ment.|

